X: 45
T: No_50_Song_of_a_Hunter.krn
N: Derived from No_50_Song_of_a_Hunter.krn
%%abc-version 2.0
%%abcx-abcm2ps-target-version 5.9.1 (29 Sep 2008)
%%abc-creator hum2abc beta
%%abcx-conversion-date 2019/03/15 08:35:01
%%humdrum-veritas 1293705039
%%humdrum-veritas-data 833294572
%%linebreak <none>
%%barnumbers 0
L: 1/8
M: 2/4
K: F clef=bass
[K:clef=bass][M:2/4]C2(DC) | 
[M:5/8]CG,G,F, z | 
[M:2/4]G,2G,F, | 
C,C,C,2 ]|:  
D3/E/D2 | 
[M:3/4]DC/C/C2z2 | 
[M:2/4]D/D3/ C/CC/ | 
[M:5/8]CG,G,2z | 
[M:2/4](3CCC DC/C/ | 
[M:5/8]CG,G,F, z | 
[M:2/4]G,2G,F, | 
[M:5/8]C,C,C,2z | 
[M:2/4]C2(DC) | 
[M:5/8](CG,)G,F, z | 
[M:2/4]G,2G,F, | 
[M:5/8]C,C,C,2z | 
[M:2/4]C2(DC) | 
[M:5/8]CG,G,F, z | 
[M:2/4]G,2G,F, | 
C,C, C, z :|]  



